svgs/samsung_health.svg

<svg width="24" height="24" viewBox="0 0 24 24" fill="none" xmlns="http://www.w3.org/2000/svg">
<path fill-rule="evenodd" clip-rule="evenodd" d="M14.103 2.11786C14.9531 2.35629 15.8191 3.02809 16.1496 3.70544C16.3364 4.08855 16.3367 4.09019 16.3647 5.08941C16.3916 6.04843 16.3982 6.09581 16.5253 6.23438C16.6525 6.37301 16.6565 6.40154 16.6228 6.93216C16.5645 7.8476 16.3361 8.51391 16.0236 8.67965C15.9304 8.72912 15.7006 8.75901 15.4132 8.75901H14.9525L14.7242 9.96189L14.4961 11.1648L14.7272 11.3586C14.8542 11.4652 15.1941 11.797 15.4824 12.0961C16.1151 12.7523 16.3945 13.2557 16.4809 13.895C16.517 14.1626 16.5186 15.0486 16.4854 16.4699C16.4576 17.6617 16.4417 18.6451 16.4502 18.6552C16.4586 18.6654 17.0249 18.2451 17.7086 17.7212C18.4729 17.1356 18.9757 16.7117 19.0139 16.6206C19.063 16.5038 19.0521 16.3424 18.9622 15.8565C18.8995 15.5176 18.8482 15.1806 18.8482 15.1074C18.848 14.8302 19.0258 14.5791 19.3959 14.3335C20.0514 13.8986 20.4706 13.8652 20.8168 14.2203L21 14.4083V15.5376V16.6669L20.843 16.8877C20.7566 17.0091 19.9126 17.9265 18.9676 18.9264C16.7761 21.2451 16.3641 21.5515 15.1312 21.7796C13.692 22.0459 11.4615 22.0764 10.6544 21.8409C9.498 21.5035 8.85349 21.1157 6.37966 19.2689C4.43629 17.818 4.30277 17.7072 4.15881 17.4245C3.9578 17.0297 3.94644 16.4948 4.13139 16.1321C4.19953 15.9984 5.34598 14.7034 6.71265 13.2164C8.82645 10.9163 9.21809 10.5154 9.50523 10.3584C9.98068 10.0985 10.4463 9.98906 10.9762 10.0128L11.4179 10.0327L11.4688 9.86283C11.5591 9.56214 11.5347 8.64637 11.4282 8.33447C11.3081 7.98266 10.9108 7.27463 10.8467 7.29818C10.8206 7.30774 10.3224 7.86322 9.73951 8.53259C8.58185 9.86204 8.28826 10.128 7.82599 10.2658C7.37774 10.3995 6.71883 10.3522 6.3231 10.1579C5.97985 9.98929 5.17748 9.21418 5.45788 9.32202C5.54346 9.35496 5.6787 9.36504 5.75843 9.34455C5.83898 9.32377 6.26147 8.9526 6.70878 8.50949C7.95273 7.27735 8.50996 7.00609 9.89009 6.96092L10.6706 6.93533L10.5061 6.57458C10.2724 6.06229 10.1868 5.68468 10.1861 5.16226C10.1831 3.05668 12.11 1.55888 14.103 2.11786ZM7.92321 15.5919C7.39214 16.0433 6.95763 16.4338 6.95763 16.4598C6.95763 16.5054 10.0353 19.1745 10.0878 19.1745C10.1101 19.1745 8.92924 14.8079 8.89967 14.7812C8.89371 14.7757 8.45429 15.1406 7.92321 15.5919Z" fill="#FFF1C0"/>
</svg>

<svg xmlns="http://www.w3.org/2000/svg" width="24" height="24" fill="none" viewBox="0 0 24 24"><path fill="#FFF1C0" fill-rule="evenodd" d="M14.103 2.118c.85.238 1.716.91 2.047 1.587.186.384.187.385.215 1.384.027.96.033 1.007.16 1.145.128.139.132.168.098.698-.059.916-.287 1.582-.6 1.748-.093.05-.322.079-.61.079h-.46l-.229 1.203-.228 1.203.231.194c.127.106.467.438.755.737.633.656.913 1.16.999 1.799.036.268.038 1.154.004 2.575a82.776 82.776 0 0 0-.035 2.185c.009.01.575-.41 1.259-.934.764-.585 1.267-1.01 1.305-1.1.049-.117.038-.279-.052-.764a8.069 8.069 0 0 1-.114-.75c0-.277.178-.528.548-.773.655-.435 1.075-.469 1.42-.114l.184.188v2.259l-.157.22c-.086.122-.93 1.04-1.875 2.04-2.192 2.318-2.604 2.625-3.837 2.853-1.439.266-3.67.296-4.477.06-1.156-.337-1.8-.724-4.274-2.571-1.944-1.451-2.077-1.562-2.221-1.844-.201-.395-.213-.93-.028-1.293.069-.134 1.215-1.429 2.582-2.916 2.113-2.3 2.505-2.7 2.792-2.858.476-.26.941-.369 1.471-.345l.442.02.05-.17c.091-.3.067-1.217-.04-1.529-.12-.351-.517-1.06-.581-1.036-.026.01-.525.565-1.107 1.235-1.158 1.329-1.452 1.595-1.914 1.733-.448.133-1.107.086-1.503-.108-.343-.169-1.146-.944-.865-.836.085.033.22.043.3.023.081-.021.503-.392.95-.836C7.954 7.277 8.51 7.006 9.89 6.961l.78-.026-.164-.36c-.234-.513-.32-.89-.32-1.413-.003-2.105 1.924-3.603 3.917-3.044m-6.18 13.474c-.53.451-.965.842-.965.868 0 .045 3.077 2.714 3.13 2.714.022 0-1.159-4.366-1.188-4.393-.006-.005-.446.36-.977.81" clip-rule="evenodd"/></svg>
